static/logos/prismic-wordmark-color.svg

<svg width="96" height="25" viewBox="0 0 96 25" fill="none" xmlns="http://www.w3.org/2000/svg">
<g clip-path="url(#clip0_1_1503)">
<path fill-rule="evenodd" clip-rule="evenodd" d="M31.6472 7.11014H32.2422C32.6483 7.11014 32.9774 7.4393 32.9774 7.84533V8.54143C32.9774 8.56301 32.9949 8.58051 33.0165 8.58051C33.3552 7.98147 33.8111 7.54581 34.3842 7.27352C34.9574 7.00123 35.5761 6.86508 36.2405 6.86508C36.9569 6.86508 37.6017 6.99782 38.1748 7.26331C38.748 7.52879 39.2365 7.89298 39.6403 8.35587C40.0441 8.81877 40.3502 9.36333 40.5586 9.9896C40.767 10.6159 40.8712 11.2898 40.8712 12.0114C40.8712 12.7329 40.7605 13.4068 40.5391 14.0331C40.3176 14.6594 40.0083 15.204 39.611 15.6669C39.2137 16.1297 38.735 16.4939 38.1748 16.7594C37.6147 17.0249 37.0025 17.1576 36.3382 17.1576C35.8953 17.1576 35.5045 17.11 35.1658 17.0147C34.8271 16.9194 34.5275 16.7969 34.267 16.6471C34.0065 16.4973 33.785 16.3374 33.6027 16.1672C33.4203 15.997 33.2705 15.8302 33.1533 15.6669C33.1209 15.6669 33.0947 15.6931 33.0947 15.7255V20.6715C33.0947 21.167 32.693 21.5687 32.1974 21.5687H31.6472C31.1517 21.5687 30.75 21.167 30.75 20.6715V8.00737C30.75 7.51184 31.1517 7.11014 31.6472 7.11014ZM38.5265 12.0114C38.5265 11.6302 38.4647 11.2626 38.3409 10.9086C38.2172 10.5546 38.0348 10.2415 37.7938 9.96918C37.5528 9.69689 37.263 9.47907 36.9243 9.31569C36.5857 9.15232 36.2014 9.07063 35.7715 9.07063C35.3417 9.07063 34.9574 9.15232 34.6187 9.31569C34.28 9.47907 33.9902 9.69689 33.7492 9.96918C33.5082 10.2415 33.3259 10.5546 33.2021 10.9086C33.0784 11.2626 33.0165 11.6302 33.0165 12.0114C33.0165 12.3926 33.0784 12.7602 33.2021 13.1141C33.3259 13.4681 33.5082 13.7812 33.7492 14.0535C33.9902 14.3258 34.28 14.5437 34.6187 14.707C34.9574 14.8704 35.3417 14.9521 35.7715 14.9521C36.2014 14.9521 36.5857 14.8704 36.9243 14.707C37.263 14.5437 37.5528 14.3258 37.7938 14.0535C38.0348 13.7812 38.2172 13.4681 38.3409 13.1141C38.4647 12.7602 38.5265 12.3926 38.5265 12.0114ZM44.2499 7.11014H44.9214C45.35 7.11014 45.6974 7.45758 45.6974 7.88617V8.62312C45.6974 8.6447 45.7149 8.6622 45.7365 8.6622C45.997 8.09038 46.3682 7.64792 46.8502 7.33478C47.3322 7.02165 47.8858 6.86508 48.511 6.86508C48.6543 6.86508 48.7943 6.8787 48.9311 6.90593C49.1753 6.95455 49.3512 7.16889 49.3512 7.41789V8.76239C49.3512 9.03278 49.132 9.25198 48.8616 9.25198C48.8325 9.25198 48.8035 9.24938 48.7748 9.24422C48.5859 9.21018 48.4003 9.19316 48.2179 9.19316C47.6708 9.19316 47.2312 9.29867 46.899 9.5097C46.5669 9.72072 46.3129 9.96238 46.137 10.2347C45.9612 10.507 45.8439 10.7792 45.7853 11.0515C45.7267 11.3238 45.6974 11.528 45.6974 11.6642V16.0153C45.6974 16.5109 45.2957 16.9126 44.8002 16.9126H44.2499C43.7544 16.9126 43.3527 16.5109 43.3527 16.0153V8.00737C43.3527 7.51184 43.7544 7.11014 44.2499 7.11014ZM52.1828 7.11014H52.733C53.2286 7.11014 53.6303 7.51184 53.6303 8.00737V16.0153C53.6303 16.5109 53.2286 16.9126 52.733 16.9126H52.1828C51.6873 16.9126 51.2856 16.5109 51.2856 16.0153V8.00737C51.2856 7.51184 51.6873 7.11014 52.1828 7.11014ZM50.9534 3.7814C50.9534 3.38658 51.0934 3.04282 51.3735 2.7501C51.6536 2.45739 52.0085 2.31104 52.4384 2.31104C52.8683 2.31104 53.2297 2.45058 53.5228 2.72968C53.8159 3.00878 53.9624 3.35935 53.9624 3.7814C53.9624 4.20345 53.8159 4.55402 53.5228 4.83312C53.2297 5.11222 52.8683 5.25177 52.4384 5.25177C52.0085 5.25177 51.6536 5.10541 51.3735 4.8127C51.0934 4.51999 50.9534 4.17622 50.9534 3.7814ZM61.0552 9.35027C60.5795 9.00047 60.1561 8.82557 59.7851 8.82557C59.4725 8.82557 59.1664 8.90726 58.8668 9.07063C58.5672 9.23401 58.4174 9.49948 58.4174 9.86707C58.4174 10.1666 58.5411 10.3844 58.7886 10.5206C59.0361 10.6567 59.3487 10.7724 59.7265 10.8677C60.1042 10.963 60.5113 11.0618 60.9477 11.1639C61.384 11.266 61.7911 11.4225 62.1689 11.6336C62.5466 11.8446 62.8592 12.1339 63.1067 12.5015C63.3542 12.8691 63.478 13.3728 63.478 14.0127C63.478 14.5981 63.3575 15.0916 63.1165 15.4933C62.8755 15.8949 62.5629 16.2182 62.1786 16.4633C61.7944 16.7084 61.3613 16.8853 60.8793 16.9943C60.3973 17.1032 59.9154 17.1576 59.4334 17.1576C58.7039 17.1576 58.0331 17.0487 57.4209 16.8309C57.1811 16.7456 56.8934 16.5742 56.5578 16.3166C56.1647 16.015 56.0906 15.4517 56.3922 15.0586C56.4179 15.0251 56.4459 14.9935 56.4761 14.964L56.7193 14.7257C57.0549 14.3968 57.5875 14.3826 57.9401 14.6931C58.0823 14.8183 58.2056 14.9149 58.3099 14.9827C58.6551 15.2074 59.0752 15.3197 59.5702 15.3197C59.7395 15.3197 59.9154 15.2993 60.0977 15.2584C60.2801 15.2176 60.4494 15.1495 60.6057 15.0542C60.7621 14.9589 60.8891 14.8398 60.9868 14.6968C61.0844 14.5539 61.1333 14.3871 61.1333 14.1965C61.1333 13.8561 61.0095 13.6043 60.762 13.4409C60.5146 13.2775 60.2019 13.1448 59.8242 13.0427C59.4464 12.9406 59.0394 12.8453 58.603 12.7568C58.1666 12.6683 57.7595 12.5253 57.3818 12.3279C57.004 12.1305 56.6914 11.8548 56.4439 11.5008C56.1964 11.1468 56.0727 10.6567 56.0727 10.0305C56.0727 9.48587 56.1801 9.01277 56.3951 8.61114C56.61 8.20951 56.8933 7.87936 57.245 7.62069C57.5967 7.36201 58.0005 7.17141 58.4564 7.04888C58.9123 6.92635 59.3748 6.86508 59.8437 6.86508C60.469 6.86508 61.0877 6.9774 61.6999 7.20204C61.9216 7.28338 62.1689 7.434 62.4418 7.65391C62.8277 7.96481 62.8885 8.52965 62.5776 8.91551C62.5517 8.9476 62.5237 8.97786 62.4936 9.00609L62.2015 9.28094C61.8861 9.57755 61.404 9.60671 61.0552 9.35027ZM66.3877 7.11014H66.8207C67.3163 7.11014 67.718 7.51184 67.718 8.00737V8.64177C67.9655 8.17888 68.3009 7.76705 68.7633 7.40626C69.2257 7.04547 69.8477 6.86508 70.6293 6.86508C72.1013 6.86508 73.0782 7.47092 73.5602 8.68262C73.8988 8.05635 74.3222 7.59686 74.8302 7.30415C75.3382 7.01144 75.9439 6.86508 76.6473 6.86508C77.2726 6.86508 77.8002 6.974 78.23 7.19183C78.6599 7.40966 79.0083 7.70918 79.2754 8.09039C79.5424 8.4716 79.7345 8.91747 79.8518 9.42801C79.969 9.93856 80.0276 10.4865 80.0276 11.072V16.0153C80.0276 16.5109 79.6259 16.9126 79.1304 16.9126H78.5802C78.0846 16.9126 77.6829 16.5109 77.6829 16.0153V11.3579C77.6829 11.0583 77.6569 10.769 77.6048 10.4899C77.5527 10.2108 77.4615 9.96579 77.3312 9.75476C77.201 9.54373 77.0251 9.37696 76.8037 9.25443C76.5822 9.1319 76.2956 9.07063 75.9439 9.07063C75.5792 9.07063 75.2698 9.14211 75.0158 9.28506C74.7618 9.42801 74.5534 9.6186 74.3906 9.85686C74.2278 10.0951 74.1105 10.3674 74.0389 10.6737C73.9672 10.9801 73.9314 11.2898 73.9314 11.6029V16.0153C73.9314 16.5109 73.5297 16.9126 73.0342 16.9126H72.484C71.9884 16.9126 71.5867 16.5109 71.5867 16.0153V11.072C71.5867 10.4593 71.463 9.97258 71.2155 9.6118C70.968 9.25101 70.5577 9.07063 69.9845 9.07063C69.5937 9.07063 69.2648 9.1387 68.9978 9.27485C68.7307 9.41099 68.5093 9.59478 68.3335 9.82623C68.1576 10.0577 68.0306 10.3232 67.9524 10.6227C67.8743 10.9222 67.8352 11.2353 67.8352 11.5621V16.0153C67.8352 16.5109 67.4335 16.9126 66.938 16.9126H66.3877C65.8922 16.9126 65.4905 16.5109 65.4905 16.0153V8.00737C65.4905 7.51184 65.8922 7.11014 66.3877 7.11014ZM83.8166 7.11014H84.3669C84.8624 7.11014 85.2641 7.51184 85.2641 8.00737V16.0153C85.2641 16.5109 84.8624 16.9126 84.3669 16.9126H83.8166C83.3211 16.9126 82.9194 16.5109 82.9194 16.0153V8.00737C82.9194 7.51184 83.3211 7.11014 83.8166 7.11014ZM82.5872 3.7814C82.5872 3.38658 82.7273 3.04282 83.0073 2.7501C83.2874 2.45739 83.6423 2.31104 84.0722 2.31104C84.5021 2.31104 84.8635 2.45058 85.1566 2.72968C85.4497 3.00878 85.5963 3.35935 85.5963 3.7814C85.5963 4.20345 85.4497 4.55402 85.1566 4.83312C84.8635 5.11222 84.5021 5.25177 84.0722 5.25177C83.6423 5.25177 83.2874 5.10541 83.0073 4.8127C82.7273 4.51999 82.5872 4.17622 82.5872 3.7814ZM94.0572 9.51422C93.9607 9.43871 93.8759 9.37934 93.8027 9.33611C93.5031 9.15913 93.197 9.07063 92.8843 9.07063C92.4545 9.07063 92.0702 9.15232 91.7315 9.31569C91.3929 9.47907 91.103 9.69689 90.8621 9.96918C90.6211 10.2415 90.4387 10.5546 90.315 10.9086C90.1912 11.2626 90.1293 11.6302 90.1293 12.0114C90.1293 12.3926 90.1912 12.7602 90.315 13.1141C90.4387 13.4681 90.6211 13.7812 90.8621 14.0535C91.103 14.3258 91.3929 14.5437 91.7315 14.707C92.0702 14.8704 92.4545 14.9521 92.8843 14.9521C93.2491 14.9521 93.5878 14.8738 93.9004 14.7172C93.9636 14.6856 94.0322 14.6426 94.1062 14.5881C94.4793 14.3138 95 14.3685 95.3079 14.7145L95.6643 15.1149C95.978 15.4673 95.9466 16.0073 95.5941 16.321C95.5509 16.3595 95.5038 16.3935 95.4537 16.4225C95.1476 16.5994 94.8383 16.7424 94.5256 16.8513C94.213 16.9602 93.9134 17.0385 93.6268 17.0862C93.3403 17.1338 93.0928 17.1576 92.8843 17.1576C92.1809 17.1576 91.5166 17.0351 90.8914 16.79C90.2661 16.545 89.7255 16.1978 89.2696 15.7485C88.8137 15.2993 88.4522 14.7581 88.1852 14.125C87.9182 13.4919 87.7846 12.7874 87.7846 12.0114C87.7846 11.2353 87.9182 10.5308 88.1852 9.89771C88.4522 9.26464 88.8137 8.72346 89.2696 8.27418C89.7255 7.8249 90.2661 7.47774 90.8914 7.23267C91.5166 6.98761 92.1809 6.86508 92.8843 6.86508C93.4836 6.86508 94.086 6.98421 94.6917 7.22246C94.9225 7.31326 95.1949 7.4756 95.5087 7.70949C95.906 8.0056 95.9881 8.56775 95.6919 8.96507C95.67 8.99453 95.6462 9.02261 95.6208 9.04916L95.2584 9.42792C94.9397 9.76108 94.4203 9.79839 94.0572 9.51422Z" fill="black"/>
<path fill-rule="evenodd" clip-rule="evenodd" d="M24.3306 12.8316L22.5127 11.0098C22.3686 10.8654 22.2877 10.6697 22.2877 10.4657V8.23587C22.2877 6.17564 22.0738 5.42855 21.6718 4.67536C21.2699 3.92217 20.68 3.33106 19.9285 2.92825C19.1769 2.52544 18.4314 2.31092 16.3756 2.31092H13.4354C13.3503 2.31092 13.2812 2.24195 13.2812 2.15686C13.2812 2.11606 13.2975 2.07693 13.3263 2.04804L15.1441 0.226205C15.2886 0.0813851 15.4849 0 15.6895 0H16.7107C19.4518 0 20.4458 0.286017 21.4479 0.823098C22.45 1.36018 23.2364 2.14832 23.7723 3.15258C24.3083 4.15683 24.5938 5.15295 24.5938 7.89993V12.7227C24.5938 12.8078 24.5248 12.8768 24.4397 12.8768C24.3988 12.8768 24.3595 12.8605 24.3306 12.8316Z" fill="black"/>
<path fill-rule="evenodd" clip-rule="evenodd" d="M11.795 24.3873L13.6129 22.5654C13.7574 22.4206 13.9536 22.3392 14.1582 22.3392H16.3816C18.4374 22.3392 19.1829 22.1247 19.9344 21.7219C20.686 21.3191 21.2758 20.728 21.6778 19.9748C22.0797 19.2216 22.2938 18.4745 22.2938 16.4143V13.468C22.2938 13.3829 22.3628 13.314 22.4478 13.314C22.4888 13.314 22.528 13.3302 22.5569 13.3592L24.3747 15.1809C24.5188 15.3253 24.5997 15.521 24.5997 15.725V16.7502C24.5997 19.4972 24.3143 20.4933 23.7784 21.4976C23.2425 22.5018 22.456 23.29 21.4539 23.8271C20.4518 24.3641 19.4579 24.6502 16.7168 24.6502H11.904C11.8189 24.6502 11.75 24.5812 11.75 24.4961C11.75 24.4553 11.7662 24.4162 11.795 24.3873Z" fill="black"/>
<path fill-rule="evenodd" clip-rule="evenodd" d="M0.263117 11.8184L2.08092 13.6402C2.22503 13.7846 2.30596 13.9803 2.30596 14.1843V16.4141C2.30596 18.4744 2.52001 19.2214 2.92195 19.9746C3.3239 20.7278 3.91373 21.3189 4.6653 21.7217C5.41688 22.1246 6.16236 22.3391 8.21816 22.3391H11.1584C11.2435 22.3391 11.3125 22.408 11.3125 22.4931C11.3125 22.5339 11.2963 22.5731 11.2675 22.6019L9.44954 24.4238C9.30503 24.5686 9.10885 24.65 8.90427 24.65H7.88294C5.14187 24.65 4.14789 24.364 3.1458 23.8269C2.1437 23.2898 1.35725 22.5017 0.821328 21.4974C0.285402 20.4932 0 19.497 0 16.7501V11.9273C0 11.8422 0.0689758 11.7732 0.154062 11.7732C0.194979 11.7732 0.234215 11.7895 0.263117 11.8184Z" fill="black"/>
<path fill-rule="evenodd" clip-rule="evenodd" d="M12.8048 0.262883L10.9868 2.08472C10.8423 2.22954 10.6462 2.31093 10.4416 2.31093H8.21816C6.16236 2.31093 5.41687 2.52544 4.6653 2.92825C3.91373 3.33106 3.3239 3.92217 2.92195 4.67536C2.52001 5.42855 2.30596 6.17565 2.30596 8.23588V11.1821C2.30596 11.2672 2.23698 11.3362 2.15189 11.3362C2.11098 11.3362 2.07174 11.3199 2.04284 11.291L0.225032 9.46923C0.0809298 9.32482 0 9.12914 0 8.92512V7.89994C0 5.15296 0.285402 4.15684 0.821328 3.15258C1.35725 2.14833 2.1437 1.36018 3.1458 0.823099C4.14789 0.286018 5.14187 0 7.88294 0H12.6957C12.7808 0 12.8498 0.0689758 12.8498 0.154062C12.8498 0.194864 12.8336 0.234 12.8048 0.262883Z" fill="black"/>
<path fill-rule="evenodd" clip-rule="evenodd" d="M20.491 8.99386L18.0122 6.61966C17.8482 6.45535 17.6565 6.33591 17.4521 6.26134C17.2831 6.1973 17.0999 6.16224 16.9085 6.16224H9.59156C9.50648 6.16224 9.4375 6.09327 9.4375 6.00818C9.4375 5.96736 9.45371 5.9282 9.48255 5.89932L11.3021 4.07729C11.4466 3.93261 11.6427 3.85132 11.8472 3.85132H17.6771C19.3752 3.85132 20.7516 5.23083 20.7516 6.93255V8.88259C20.7516 8.96768 20.6827 9.03666 20.5976 9.03666C20.5579 9.03666 20.5197 9.02132 20.491 8.99386Z" fill="black"/>
<path fill-rule="evenodd" clip-rule="evenodd" d="M15.6207 20.5397L17.9905 18.0547C18.1545 17.8904 18.2737 17.6982 18.3481 17.4933C18.412 17.3239 18.4469 17.1403 18.4469 16.9485V9.61622C18.4469 9.53113 18.5159 9.46216 18.601 9.46216C18.6419 9.46216 18.6812 9.47845 18.7101 9.50745L20.5281 11.3309C20.6721 11.4753 20.7529 11.6709 20.7529 11.8748V17.7188C20.7529 19.4206 19.3764 20.8001 17.6783 20.8001H15.7322C15.6471 20.8001 15.5781 20.7311 15.5781 20.646C15.5781 20.6064 15.5933 20.5683 15.6207 20.5397Z" fill="black"/>
<path fill-rule="evenodd" clip-rule="evenodd" d="M4.10438 15.6561L6.58323 18.0303C6.74719 18.1946 6.93898 18.314 7.14339 18.3886C7.3124 18.4526 7.49562 18.4877 7.68702 18.4877H15.0039C15.089 18.4877 15.158 18.5567 15.158 18.6418C15.158 18.6826 15.1418 18.7217 15.1129 18.7506L13.2933 20.5726C13.1488 20.7173 12.9527 20.7986 12.7482 20.7986H6.91836C5.2203 20.7986 3.84375 19.4191 3.84375 17.7174V15.7673C3.84375 15.6823 3.91273 15.6133 3.99782 15.6133C4.03753 15.6133 4.0757 15.6286 4.10438 15.6561Z" fill="black"/>
<path fill-rule="evenodd" clip-rule="evenodd" d="M8.976 4.1117L6.60614 6.5967C6.44218 6.76101 6.323 6.95321 6.2486 7.15806C6.18469 7.32744 6.14971 7.51106 6.14971 7.70286V15.0352C6.14971 15.1203 6.08073 15.1892 5.99565 15.1892C5.95471 15.1892 5.91545 15.1729 5.88655 15.1439L4.06856 13.3205C3.92459 13.1761 3.84375 12.9805 3.84375 12.7766V6.93255C3.84375 5.23083 5.2203 3.85132 6.91836 3.85132H8.86451C8.94959 3.85132 9.01857 3.92029 9.01857 4.00538C9.01857 4.04498 9.00332 4.08305 8.976 4.1117Z" fill="black"/>
</g>
<defs>
<clipPath id="clip0_1_1503">
<rect width="96" height="25" fill="white"/>
</clipPath>
</defs>
</svg>

<svg xmlns="http://www.w3.org/2000/svg" width="245.76" height="64" fill="none" viewBox="0 0 96 25"><g fill="#000" fill-rule="evenodd" clip-path="url(#a)" clip-rule="evenodd"><path d="M31.647 7.11h.595c.406 0 .735.33.735.735v.696c0 .022.018.04.04.04.338-.6.794-1.035 1.367-1.307a4.27 4.27 0 0 1 1.856-.409c.717 0 1.362.133 1.935.398a4.34 4.34 0 0 1 1.465 1.093c.404.463.71 1.007.919 1.634.208.626.312 1.3.312 2.021 0 .722-.11 1.396-.332 2.022a5.08 5.08 0 0 1-.928 1.634 4.293 4.293 0 0 1-1.436 1.092 4.233 4.233 0 0 1-1.837.399c-.443 0-.834-.048-1.172-.143a3.936 3.936 0 0 1-.899-.368c-.26-.15-.482-.31-.664-.48a3.433 3.433 0 0 1-.45-.5.059.059 0 0 0-.058.059v4.946a.897.897 0 0 1-.898.897h-.55a.897.897 0 0 1-.897-.897V8.007c0-.495.402-.897.897-.897Zm6.88 4.901c0-.38-.062-.748-.186-1.102a2.733 2.733 0 0 0-1.417-1.593 2.62 2.62 0 0 0-1.152-.245 2.62 2.62 0 0 0-2.023.898 2.793 2.793 0 0 0-.547.94 3.32 3.32 0 0 0-.185 1.102c0 .382.061.75.185 1.103a2.731 2.731 0 0 0 1.417 1.593 2.62 2.62 0 0 0 1.153.245 2.62 2.62 0 0 0 2.022-.899c.24-.272.423-.585.547-.939.124-.354.185-.721.185-1.103Zm5.723-4.9h.671c.429 0 .776.347.776.775v.737c0 .022.018.04.04.04.26-.573.631-1.015 1.113-1.328.482-.313 1.036-.47 1.661-.47.143 0 .283.014.42.04.244.05.42.264.42.513v1.344a.49.49 0 0 1-.576.482 3.136 3.136 0 0 0-.557-.05c-.547 0-.987.105-1.319.316a2.447 2.447 0 0 0-.762.725 2.465 2.465 0 0 0-.352.817 3.21 3.21 0 0 0-.088.612v4.351a.897.897 0 0 1-.897.898h-.55a.897.897 0 0 1-.897-.898V8.007c0-.495.401-.897.897-.897Zm7.933 0h.55c.496 0 .897.4.897.896v8.008a.897.897 0 0 1-.897.898h-.55a.897.897 0 0 1-.897-.898V8.007c0-.495.401-.897.897-.897Zm-1.23-3.33c0-.394.14-.738.42-1.03.28-.294.636-.44 1.065-.44.43 0 .792.14 1.085.419.293.279.44.63.44 1.051 0 .422-.147.773-.44 1.052-.293.28-.655.419-1.085.419-.43 0-.784-.147-1.065-.44a1.443 1.443 0 0 1-.42-1.03Zm10.102 5.57c-.475-.35-.899-.525-1.27-.525-.313 0-.619.081-.918.245-.3.163-.45.428-.45.796 0 .3.124.517.372.654.247.136.56.251.938.347.377.095.784.194 1.22.296.437.102.844.258 1.222.47.378.21.69.5.938.867.247.368.371.872.371 1.512 0 .585-.12 1.079-.361 1.48a2.905 2.905 0 0 1-.938.97 4.058 4.058 0 0 1-1.3.531 6.542 6.542 0 0 1-1.446.164c-.73 0-1.4-.11-2.012-.327-.24-.085-.528-.257-.863-.514a.897.897 0 0 1-.082-1.353l.243-.238a.897.897 0 0 1 1.221-.033c.142.125.266.222.37.29.345.224.765.337 1.26.337.17 0 .345-.02.528-.062.182-.04.351-.108.508-.204.156-.095.283-.214.38-.357a.866.866 0 0 0 .147-.5c0-.34-.123-.593-.371-.756a3.227 3.227 0 0 0-.938-.398 19.697 19.697 0 0 0-1.221-.286 4.592 4.592 0 0 1-1.221-.43 2.598 2.598 0 0 1-.938-.826c-.248-.354-.371-.844-.371-1.47 0-.545.107-1.018.322-1.42a2.92 2.92 0 0 1 .85-.99c.352-.259.756-.45 1.211-.572a5.323 5.323 0 0 1 1.388-.184c.625 0 1.244.112 1.856.337.222.081.469.232.742.452a.897.897 0 0 1 .052 1.352l-.292.275a.897.897 0 0 1-1.147.07Zm5.333-2.24h.433c.495 0 .897.4.897.896v.635a3.836 3.836 0 0 1 1.045-1.236c.463-.36 1.085-.54 1.866-.54 1.472 0 2.45.605 2.931 1.817.339-.627.762-1.086 1.27-1.379.508-.293 1.114-.439 1.817-.439.626 0 1.153.109 1.583.327.43.218.778.517 1.045.898.267.382.46.827.577 1.338.117.51.176 1.058.176 1.644v4.943a.897.897 0 0 1-.898.898h-.55a.897.897 0 0 1-.897-.898v-4.657c0-.3-.026-.589-.078-.868a2.13 2.13 0 0 0-.274-.735 1.411 1.411 0 0 0-.527-.5c-.222-.123-.508-.184-.86-.184-.365 0-.674.071-.928.214a1.84 1.84 0 0 0-.625.572c-.163.238-.28.51-.352.817a4.065 4.065 0 0 0-.108.929v4.412a.897.897 0 0 1-.897.898h-.55a.897.897 0 0 1-.897-.898v-4.943c0-.613-.124-1.1-.371-1.46-.248-.361-.658-.541-1.231-.541-.391 0-.72.068-.987.204-.267.136-.489.32-.665.551a2.233 2.233 0 0 0-.38.797c-.079.3-.118.612-.118.94v4.452a.897.897 0 0 1-.897.898h-.55a.897.897 0 0 1-.898-.898V8.007c0-.495.402-.897.898-.897Zm17.429 0h.55c.495 0 .897.4.897.896v8.008a.897.897 0 0 1-.897.898h-.55a.897.897 0 0 1-.898-.898V8.007c0-.495.402-.897.898-.897Zm-1.23-3.33c0-.394.14-.738.42-1.03.28-.294.635-.44 1.065-.44.43 0 .791.14 1.085.419.293.279.44.63.44 1.051 0 .422-.147.773-.44 1.052-.293.28-.655.419-1.085.419-.43 0-.785-.147-1.065-.44a1.444 1.444 0 0 1-.42-1.03Zm11.47 5.733a2.44 2.44 0 0 0-.254-.178 1.785 1.785 0 0 0-.919-.265 2.62 2.62 0 0 0-2.022.898 2.792 2.792 0 0 0-.547.94 3.317 3.317 0 0 0-.186 1.102c0 .382.062.75.186 1.103a2.731 2.731 0 0 0 1.416 1.593 2.62 2.62 0 0 0 1.153.245c.365 0 .704-.078 1.016-.235.064-.031.132-.074.206-.129a.897.897 0 0 1 1.202.127l.356.4a.854.854 0 0 1-.21 1.307 5.47 5.47 0 0 1-1.827.664 4.622 4.622 0 0 1-.743.072 5.41 5.41 0 0 1-1.993-.368 4.75 4.75 0 0 1-1.621-1.041 4.948 4.948 0 0 1-1.085-1.624c-.267-.633-.4-1.338-.4-2.114 0-.776.133-1.48.4-2.113a4.95 4.95 0 0 1 1.085-1.624 4.75 4.75 0 0 1 1.621-1.041 5.412 5.412 0 0 1 1.993-.368c.6 0 1.202.12 1.808.357.23.091.503.254.817.487a.897.897 0 0 1 .112 1.34l-.363.379a.897.897 0 0 1-1.2.086ZM24.33 12.832l-1.817-1.822a.77.77 0 0 1-.225-.544v-2.23c0-2.06-.214-2.807-.616-3.56a4.195 4.195 0 0 0-1.744-1.748c-.751-.403-1.497-.617-3.552-.617h-2.94a.154.154 0 0 1-.11-.263L15.144.226A.77.77 0 0 1 15.69 0h1.02c2.742 0 3.736.286 4.738.823a5.593 5.593 0 0 1 2.324 2.33c.536 1.004.822 2 .822 4.747v4.823a.154.154 0 0 1-.263.109ZM11.795 24.387l1.818-1.822a.77.77 0 0 1 .545-.226h2.224c2.055 0 2.8-.214 3.552-.617a4.195 4.195 0 0 0 1.744-1.747c.402-.753.616-1.5.616-3.56v-2.947a.154.154 0 0 1 .263-.109l1.818 1.822a.77.77 0 0 1 .225.544v1.025c0 2.747-.286 3.743-.822 4.748a5.594 5.594 0 0 1-2.324 2.33c-1.002.536-1.996.822-4.737.822h-4.813a.154.154 0 0 1-.109-.263ZM.263 11.818l1.818 1.822a.77.77 0 0 1 .225.544v2.23c0 2.06.214 2.807.616 3.56a4.195 4.195 0 0 0 1.743 1.748c.752.403 1.497.617 3.553.617h2.94a.154.154 0 0 1 .11.263L9.45 24.424a.77.77 0 0 1-.546.226H7.883c-2.741 0-3.735-.286-4.737-.823a5.593 5.593 0 0 1-2.325-2.33C.285 20.493 0 19.497 0 16.75v-4.823a.154.154 0 0 1 .263-.109ZM12.805.263l-1.818 1.822a.77.77 0 0 1-.545.226H8.218c-2.056 0-2.801.214-3.553.617a4.195 4.195 0 0 0-1.743 1.747c-.402.754-.616 1.5-.616 3.56v2.947a.154.154 0 0 1-.263.109L.225 9.469A.77.77 0 0 1 0 8.925V7.9c0-2.747.285-3.743.821-4.747A5.593 5.593 0 0 1 3.146.823C4.148.286 5.142 0 7.883 0h4.813a.154.154 0 0 1 .109.263Z"/><path d="M20.491 8.994 18.012 6.62a1.531 1.531 0 0 0-.56-.359 1.53 1.53 0 0 0-.544-.099H9.593a.154.154 0 0 1-.11-.263l1.82-1.822a.77.77 0 0 1 .545-.226h5.83a3.078 3.078 0 0 1 3.075 3.082v1.95a.154.154 0 0 1-.261.11ZM15.62 20.54l2.37-2.485c.165-.165.284-.357.358-.562a1.54 1.54 0 0 0 .099-.544V9.615a.154.154 0 0 1 .263-.109l1.818 1.824a.77.77 0 0 1 .225.544v5.844a3.078 3.078 0 0 1-3.075 3.081h-1.946a.154.154 0 0 1-.111-.26ZM4.104 15.656l2.48 2.374c.163.165.355.284.56.359.168.064.352.099.543.099h7.317a.154.154 0 0 1 .109.263l-1.82 1.822a.77.77 0 0 1-.545.226h-5.83a3.078 3.078 0 0 1-3.074-3.082v-1.95a.154.154 0 0 1 .26-.11ZM8.976 4.112l-2.37 2.485a1.535 1.535 0 0 0-.357.561 1.54 1.54 0 0 0-.1.545v7.332a.154.154 0 0 1-.262.109L4.069 13.32a.77.77 0 0 1-.225-.543V6.933A3.078 3.078 0 0 1 6.918 3.85h1.947a.154.154 0 0 1 .111.26Z"/></g><defs><clipPath id="a"><path fill="#fff" d="M0 0h96v25H0z"/></clipPath></defs></svg>
